src/assets/icons/svg/homeTicket.svg

<?xml version="1.0" encoding="UTF-8"?>
<svg width="184px" height="140px" viewBox="0 0 184 140" version="1.1" xmlns="http://www.w3.org/2000/svg" xmlns:xlink="http://www.w3.org/1999/xlink">
    <!-- Generator: Sketch 61 (89581) - https://sketch.com -->
    <title>group-7-copy-2</title>
    <desc>Created with Sketch.</desc>
    <g id="MVP" stroke="none" stroke-width="1" fill="none" fill-rule="evenodd">
        <g id="Etusivu-landing-01-Copy-5" transform="translate(-591.000000, -965.000000)" fill="#000000" fill-rule="nonzero">
            <g id="group-7-copy-2" transform="translate(591.000000, 965.000000)">
                <path d="M69.738,0.297 L72.923,3.481 L85.687,16.242 L84.072,19.197 C83.5320759,20.1874408 83.2504062,21.2979556 83.253,22.426 C83.2527345,24.2182306 83.9647146,25.937103 85.2322006,27.2042138 C86.4996865,28.4713246 88.2187696,29.182796 90.011,29.182 C91.1382548,29.1849047 92.2479558,28.9028357 93.237,28.362 L96.197,26.748 L112.147,42.693 L42.706,112.111 L26.756,96.166 L28.372,93.207 C29.5095902,91.1133282 29.459988,88.5751864 28.2414653,86.5275596 C27.0229427,84.4799328 24.8157655,83.2257426 22.433,83.227 C21.3058322,83.2237887 20.1961364,83.5055124 19.207,84.046 L16.247,85.66 L0.297,69.716 L45.347,24.681 L51.716,18.309 L66.554,3.481 L69.738,0.297 Z M51.716,31.047 L13.04,69.716 L18.137,74.812 C19.5350295,74.418033 20.9805208,74.2178311 22.433,74.217 C31.145,74.217 38.205,81.275 38.205,89.984 C38.205,91.47 37.995,92.911 37.61,94.279 L42.707,99.374 L81.387,60.71 L80.069,59.388 L51.716,31.048 L51.716,31.047 Z M69.74,13.037 L58.09,24.68 L87.757,54.34 L99.406,42.695 L94.309,37.599 C92.941,37.983 91.499,38.194 90.013,38.194 C81.301,38.194 74.241,31.136 74.241,22.427 C74.241,20.941 74.451,19.5 74.836,18.132 L69.739,13.037 L69.74,13.037 Z M141.294,27.889 L144.478,31.072 L157.243,43.833 L155.628,46.788 C155.087565,47.778646 154.805545,48.8895305 154.808,50.018 C154.808,51.8100573 155.520097,53.5286728 156.787554,54.7955673 C158.055011,56.0624618 159.773943,56.7737959 161.566,56.773 C162.693168,56.7762113 163.802864,56.4944876 164.792,55.954 L167.752,54.339 L183.702,70.284 L114.262,139.702 L98.312,123.758 L99.927,120.798 C101.06459,118.704328 101.014988,116.166186 99.7964653,114.11856 C98.5779427,112.070933 96.3707655,110.816743 93.988,110.818 C92.8611706,110.814957 91.7518395,111.096676 90.763,111.637 L87.803,113.252 L71.853,97.307 L116.903,52.272 L123.271,45.901 L138.109,31.072 L141.294,27.889 L141.294,27.889 Z M123.272,58.639 L84.596,97.307 L89.693,102.402 C91.0910295,102.008033 92.5365208,101.807831 93.989,101.807 C102.7,101.807 109.76,108.865 109.76,117.574 C109.76,119.06 109.55,120.501 109.166,121.869 L114.263,126.964 L152.943,88.3 L151.625,86.978 L123.272,58.639 L123.272,58.639 Z M141.294,40.627 L129.646,52.272 L159.313,81.93 L170.961,70.285 L165.864,65.189 C164.496,65.574 163.055,65.784 161.568,65.784 C152.857,65.784 145.797,58.726 145.797,50.018 C145.797,48.531 146.007,47.09 146.391,45.723 L141.294,40.627 Z" id="Shape"></path>
            </g>
        </g>
    </g>
</svg>

<?xml version="1.0" encoding="UTF-8"?>
<svg version="1.1" viewBox="0 0 184 140" xmlns="http://www.w3.org/2000/svg"><g fill="none" fill-rule="evenodd"><g transform="translate(-591 -965)" fill="#000" fill-rule="nonzero"><g transform="translate(591 965)"><path d="m69.738 0.297 3.185 3.184 12.764 12.761-1.615 2.955c-0.53992 0.99044-0.82159 2.101-0.819 3.229-2.655e-4 1.7922 0.71171 3.5111 1.9792 4.7782 1.2675 1.2671 2.9866 1.9786 4.7788 1.9778 1.1273 0.0029047 2.237-0.27916 3.226-0.82l2.96-1.614 15.95 15.945-69.441 69.418-15.95-15.945 1.616-2.959c1.1376-2.0937 1.088-4.6318-0.13053-6.6794-1.2185-2.0476-3.4257-3.3018-5.8085-3.3006-1.1272-0.0032113-2.2369 0.27851-3.226 0.819l-2.96 1.614-15.95-15.944 45.05-45.035 6.369-6.372 14.838-14.828 3.184-3.184zm-18.022 30.75-38.676 38.669 5.097 5.096c1.398-0.39397 2.8435-0.59417 4.296-0.595 8.712 0 15.772 7.058 15.772 15.767 0 1.486-0.21 2.927-0.595 4.295l5.097 5.095 38.68-38.664-1.318-1.322-28.353-28.34v-1e-3zm18.024-18.01-11.65 11.643 29.667 29.66 11.649-11.645-5.097-5.096c-1.368 0.384-2.81 0.595-4.296 0.595-8.712 0-15.772-7.058-15.772-15.767 0-1.486 0.21-2.927 0.595-4.295l-5.097-5.095h1e-3zm71.554 14.852 15.949 15.944-1.615 2.955c-0.54044 0.99065-0.82246 2.1015-0.82 3.23 0 1.7921 0.7121 3.5107 1.9796 4.7776s2.9864 1.9782 4.7784 1.9774c1.1272 0.0032113 2.2369-0.27851 3.226-0.819l2.96-1.615 15.95 15.945-69.44 69.418-15.95-15.944 1.615-2.96c1.1376-2.0937 1.088-4.6318-0.13053-6.6794-1.2185-2.0476-3.4257-3.3018-5.8085-3.3006-1.1268-0.003043-2.2362 0.27868-3.225 0.819l-2.96 1.615-15.95-15.945 45.05-45.035 6.368-6.371 14.838-14.829 3.185-3.183zm-18.022 30.75-38.676 38.668 5.097 5.095c1.398-0.39397 2.8435-0.59417 4.296-0.595 8.711 0 15.771 7.058 15.771 15.767 0 1.486-0.21 2.927-0.594 4.295l5.097 5.095 38.68-38.664-1.318-1.322-28.353-28.339zm18.022-18.012-11.648 11.645 29.667 29.658 11.648-11.645-5.097-5.096c-1.368 0.385-2.809 0.595-4.296 0.595-8.711 0-15.771-7.058-15.771-15.766 0-1.487 0.21-2.928 0.594-4.295l-5.097-5.096z"/></g></g></g></svg>
